X: 11
T:Idlewild Jig
C:Traditional - Ryan's Mammoth Collection (1883)
M:6/8
K:D
|: "D" D2D FED | F2A d2 A | "G" Bcd A2F | "A"E2D B,2A, |
"D" D2D FED | F2A d2 A | "G" Bcd A2F | "A"E2C "D"D3 :|
|:"Bm"B2F F^EF |"Bm/A#"d2 B B^AB |"Bm/A" f2 B B^AB |"Bm/G#" b2f f^ef | 
"G"g2e "D"f2d | "A"e2c "D"d2A |1"G"Bcd A2 c | "A"B2 "F#m"AF2A:|2"G"Bcd A2F | "A"E2D B,2A, ||


